resources/haticons/SVG/twitter-font.svg

<!-- Generated by IcoMoon.io -->
<svg version="1.1" xmlns="http://www.w3.org/2000/svg" width="24" height="24" viewBox="0 0 24 24">
<title>twitter-font</title>
<path d="M18.975 11.775h-10.35v4.425c0 1.8 1.050 2.25 1.65 2.325h8.7c1.575 0 2.775 1.275 2.775 2.775s-1.275 2.7-2.775 2.7h-8.625c-0.3 0-0.6-0.075-0.9-0.15-5.175-0.825-6.225-5.025-6.45-7.050v-14.025c0-1.5 1.275-2.775 2.775-2.775s2.775 1.275 2.775 2.775v3.45h10.35c1.575 0 2.775 1.275 2.775 2.775s-1.2 2.775-2.7 2.775z"></path>
</svg>

<svg xmlns="http://www.w3.org/2000/svg" width="24" height="24"><path d="M18.975 11.775H8.625V16.2c0 1.8 1.05 2.25 1.65 2.325h8.7c1.575 0 2.775 1.275 2.775 2.775S20.475 24 18.975 24H10.35c-.3 0-.6-.075-.9-.15-5.175-.825-6.225-5.025-6.45-7.05V2.775C3 1.275 4.275 0 5.775 0S8.55 1.275 8.55 2.775v3.45H18.9c1.575 0 2.775 1.275 2.775 2.775s-1.2 2.775-2.7 2.775z"/></svg>
